X:37
T:Love and the Gout Reel
S:John Moore's Book 2
Z:Transcribed by Taz Tarry 04/2021
%%VWML: Moore1-4494-p31-1
F:http://www.vwml.org/record/Moore2/4494/p31
M:2/4
L:1/8
K:D
d2 dA|d2 dA|defg|afge|d2 dA|B2 BG|FABc|d2 d2:|
e2 ec|f2 fd|g2ge|a2 ag|f2 fe|d2 dc|Bdce|d2 d2:|

